X:1
T: Hie over hunt
C:Nathaniel Gow
R:Strathspey
Q: 128
K:Bb
M:4/4
L:1/16
|:d2|BB3 B3D DEF2 F3d|BB3 e3B c2C2 C3c|BB3 B3D F4 F3g|fB3 d3c B2B,2 B,2d2|
BB3 B3D DEF2 F3d|BB3 e3B c2C2 C3c|BB3 B3D F4 F3g|fB3 d3c B2B,2 B,2g2|
ff3 f3d f3=e1/2f1/2 b3d|ff3 b3d g2c2 c2g2|ff3 f3d f3=e1/2f1/2 g3_e|d3B c3A B2B,2 B,3g|
ff3 f3d f3=e1/2f1/2 b3d|ff3 b3d g2c2 c2g2|ff3 e3c d3B c3A|B3F G2B2 D2B,2 B,2:|
